packages/assets/static/images/icons/p-rescription.svg

<svg width="24" height="24" viewBox="0 0 24 24" xmlns="http://www.w3.org/2000/svg">
<path d="M16.9668 17.6235L18.7968 15.7945C19.0081 15.5831 19.1269 15.2965 19.1269 14.9976C19.1269 14.6987 19.0081 14.4121 18.7968 14.2007C18.5855 13.9894 18.2988 13.8707 17.9999 13.8707C17.701 13.8707 17.4144 13.9894 17.203 14.2007L15.373 16.0298L12.2727 12.936C13.499 12.5992 14.5613 11.8288 15.2624 10.7678C15.9634 9.70689 16.2556 8.42754 16.0845 7.16744C15.9135 5.90734 15.2909 4.75215 14.3324 3.91644C13.3739 3.08073 12.1447 2.62132 10.873 2.62354H5.99805C5.69968 2.62354 5.41353 2.74207 5.20255 2.95305C4.99157 3.16403 4.87305 3.45017 4.87305 3.74854V17.9985C4.87305 18.2969 4.99157 18.5831 5.20255 18.794C5.41353 19.005 5.69968 19.1235 5.99805 19.1235C6.29642 19.1235 6.58256 19.005 6.79354 18.794C7.00452 18.5831 7.12305 18.2969 7.12305 17.9985V13.1235H9.2793L13.7793 17.6235L11.9493 19.4526C11.8446 19.5573 11.7616 19.6815 11.705 19.8182C11.6484 19.9549 11.6192 20.1015 11.6192 20.2495C11.6192 20.3975 11.6484 20.544 11.705 20.6807C11.7616 20.8175 11.8446 20.9417 11.9493 21.0464C12.1606 21.2577 12.4473 21.3764 12.7462 21.3764C12.8942 21.3764 13.0407 21.3473 13.1774 21.2906C13.3142 21.234 13.4384 21.151 13.543 21.0464L15.373 19.2173L17.2021 21.0473C17.4135 21.2586 17.7001 21.3774 17.999 21.3774C18.2979 21.3774 18.5845 21.2586 18.7959 21.0473C19.0072 20.8359 19.1259 20.5493 19.1259 20.2504C19.1259 19.9515 19.0072 19.6649 18.7959 19.4535L16.9668 17.6235ZM7.12305 4.87354H10.873C11.6687 4.87354 12.4318 5.18961 12.9944 5.75222C13.557 6.31483 13.873 7.07789 13.873 7.87354C13.873 8.66919 13.557 9.43225 12.9944 9.99486C12.4318 10.5575 11.6687 10.8735 10.873 10.8735H7.12305V4.87354Z"/>
</svg>

<svg viewBox="0 0 24 24" xmlns="http://www.w3.org/2000/svg" aria-hidden="true" fill="currentColor" height="24px" width="24px"><path d="m16.967 17.624 1.83-1.83a1.127 1.127 0 0 0-1.594-1.593l-1.83 1.829-3.1-3.094a5.25 5.25 0 0 0-1.4-10.312H5.998a1.125 1.125 0 0 0-1.125 1.125v14.25a1.125 1.125 0 1 0 2.25 0v-4.875H9.28l4.5 4.5-1.83 1.829a1.126 1.126 0 1 0 1.594 1.593l1.83-1.829 1.83 1.83a1.127 1.127 0 0 0 1.593-1.594zM7.123 4.874h3.75a3 3 0 1 1 0 6h-3.75z"/></svg>
